X:28
T: Salt Creek
C: Traditional
S: MandoZine TablEdit Archives
S: http://www.mandozine.com/music/tabledit_files/SaltCreek2-A-Trad.tef
Z: TablEdited by Mike Stangeland for MandoZine
L: 1/8
Q: 480
M: 4/4
K: Amix
|: "A"GA AA A2 AA | "A"BA Bc "D"d2 dA | "G"BA =GA BB =GA | "G"BA =GF "E"E4 |
"A"GA AA A2 AA | "A"BA Bc "D"d2 e2 | "G"ef ef =gf ed | "E"cA Bc "A"A4 :|
|: "A"ea ee a2 ab | c'a bc' a2 ef | "G"=gf =ga =gf e=g | fe f=g fe d2 |
 "A"ea ee a2 ab | c'a bc' a2 ef | "G"=gf =ga =gf ed | "E"cA Bc "A"A4 :|
